X:1
T:Our Faithful God
T:Tune: Christian Gregor, 1784 Text under copyright; for copyrighted material see Psalter Hymnal 445
T:10 11 10 11 10 4 GREGOR'S 112th METRE www.hymnary.org/text/our_faithful_god
T:Our Faithful God
T:This tune is in the public domain. You may freely use this score for personal and congregational worship. If you reproduce the score, please credit Hymnary.org as the source. 
T:This tune is in the public domain. You may freely use this score for personal and congregational worship. If you reproduce the score, please credit Hymnary.org as the source. 
Z:This tune is in the public domain. You may freely use this score for personal and congregational worship. If you reproduce the score, please credit Hymnary.org as the source.
%%score ( 1 2 ) ( 3 4 )
L:1/8
M:4/4
K:C
V:1 treble nm="SOPRANO ALTO" snm="S. A."
V:2 treble 
V:3 bass nm="TENOR BASS" snm="T. B."
V:4 bass 
V:1
 E2 | G2 B,2 C2 c2 | A2 F2 E2 D2 | C6 D2 | E2 E2 | ^F2 F2 | G2 G2 c2 B2 | A4 G6 E2 | G2 B,2 C2 c2 | %9
 A2 F2 | E2 D2 | C6 D2 | E2 E2 ^F2 F2 | G2 G2 c2 B2 | A4 G6 |1 G2 | c2 B2 A2 A2 | B2 c2 d2 c2 | %18
 B6 c2 | E4 D4 | C6 x2 |] %21
V:2
 C2 | C2 G,2 G,2 C2 | E2 D2 C2 B,2 | C6 B,2 | C2 C2 | D2 C2 | B,2 E2 A2 G2 | (G2 ^F2) D6 C2 | %8
 C2 G,2 G,2 C2 | E2 D2 | C2 B,2 | C6 B,2 | C2 C2 D2 C2 | B,2 E2 A2 G2 | (G2 ^F2) D6 |1 G2 | %16
 G2 G2 G2 F2 | F2 GA G2 A2 | ^G6 E2 | C6 B,2 | C6 x2 |] %21
V:3
 G,2 | G,2 F,2 E,2 E,2 | A,2 A,2 G,2 F,2 | E,6 G,2 | G,2 A,2 | A,2 A,2 | G,2 C2 E2 D2 | %7
 D4 B,6 G,2 | G,2 F,2 E,2 E,2 | A,2 A,2 | G,2 F,2 | E,6 G,2 | G,2 A,2 A,2 A,2 | G,2 C2 E2 D2 | %14
 D4 B,6 |1 B,2 | C2 C2 C2 C2 | D2 E2 D2 E2 | E6 A,2 | (C2 G,4) F,2 | E,6 x2 |] %21
V:4
 C,2 | E,2 D,2 C,2 A,,2 | C,2 D,2 E,2 G,,2 | A,,6 G,,2 | C,2 A,,2 | D,2 ^D,2 | %6
 E,2 C,B,, A,,2 B,,C, | D,4 G,6 C,2 | E,2 D,2 C,2 A,,2 | C,2 D,2 | E,2 G,,2 | A,,6 G,,2 | %12
 C,2 A,,2 D,2 ^D,2 | E,2 C,B,, A,,2 B,,C, | D,4 G,6 |1 G,F, | E,2 E,2 F,2 F,E, | %17
 D,2 C,2 B,,2 C,D, | E,6 A,2 | (G,2 G,,4) G,,2 | C,6 x2 |] %21

